X:1
T:Pray
T:Pray
T:James A. Brown
T:James A. Brown, 1910
T:Public Domain Courtesy of the Cyber Hymnal™
T:Public Domain Courtesy of the Cyber Hymnal™
C:James A. Brown
Z:Public Domain
Z:Courtesy of the Cyber Hymnal™
%%score ( 1 2 ) ( 3 4 )
L:1/8
Q:1/4=110
M:4/4
K:F
V:1 treble 
V:2 treble 
V:3 bass 
V:4 bass 
V:1
 [FA]4 (AG) (z G) | [FA]2 [FA]2 [CF]2 [CF]2 | [EG]2 [EG]2 [EG]2 [FA]2 | [EG]8 | [FA]4 (AG) (z G) | %5
w: 1.~Pray, pray, * *|* in~the old- time|way, Come, Chris- tians,|ga-|ther round; * *|
w: 2.~Pray, pray * *|* where two or|three Are ga- thered|in|His name; * *|
w: 3.~Pray, pray * *|* and seek His|face, And turn from|all|your sin; * *|
w: 4.~Pray, pray, * *|* for souls are|lost, Their blood is|on|our hands; * *|
w: 5.~Pray, pray, * *|* O sin- ner,|pray, Your heart in|guilt|bowed down; * *|
 [FA]2 [FA]2 [CF]2 (z G) | [FA]2 [FA]2 [FA]2 [CG]2 | [CF]8 ||"^Refrain" [Fc]4 [Fc]3 [Fd] | %9
w: * Pray, pray *|* as~they used to|pray,|When~the power of|
w: * Pray, pray, *|* for Je- sus|said,|“I~am in the|
w: * Pray, pray *|* for grace to|go|And bring the|
w: * Pray, pray *|* even now their|feet|Are on death’s|
w: * Pray, pray, *|* for God will|hear,|He says, “I|
 [Fc]2 [FA]2 [CF]2 (AG) | [CF]2 C2 (FG) [FA]2 | [Fc]8 | [Fc]4 [Fc]3 [FA] | [Fc]2 [Fc]2 [FA]2 (FG) | %14
w: God came down. * *|||||
w: midst of them.” * *|||||
w: wan- derers in. Pray, *|pray, the on- * ly|way|To reach the|saints’ high ground; Pray, *|
w: sink- ing sand. * *|||||
w: will be found.” * *|||||
 [FA]2 [FA]2 [FA] [CG]3 | [CF]8 |] %16
w: ||
w: ||
w: pray, the prayer of|faith|
w: ||
w: ||
V:2
 x4 F2 F2 | x8 | x8 | x8 | x4 F2 F2 | x6 F2 | x8 | x8 || x8 | x6 F2 | x2 C2 C2 x2 | x8 | x8 | %13
 x6 F2 | x8 | x8 |] %16
V:3
 [F,C]4 (CB,) (A,C) | [F,C]2 [F,C]2 [F,A,]2 [F,A,]2 | [C,C]2 [C,C]2 [C,C]2 [F,C]2 | [C,C]8 | %4
 [F,C]4 (CB,) (A,C) | [F,C]2 [F,C]2 [F,A,]2 [D,=B,]2 | [C,C]2 [C,C]2 [C,C]2 [C,B,]2 | [F,A,]8 || %8
 [F,A,]4 [F,A,]3 [F,B,] | [F,A,]2 [F,C]2 [F,A,]2 (CB,) | [F,A,]2 [F,A,]2 (A,B,) [F,C]2 | [F,A,]8 | %12
 [F,A,]4 [F,A,]3 [F,C] | [F,A,]2 [F,A,]2 [F,C]2 [D,=B,]2 | [C,C]2 [C,C]2 [C,C] [C,B,]3 | [F,A,]8 |] %16
V:4
 x4 F,2 F,2 | x8 | x8 | x8 | x4 F,2 F,2 | x8 | x8 | x8 || x8 | x6 F,2 | x4 F,2 x2 | x8 | x8 | x8 | %14
 x8 | x8 |] %16

